X:1
T:To the Weaver's Gin Ye Go
M:2/4
L:1/8
K:D
d/2-B/2| AF FE/2-D/2| GF Fd/2-B/2| AF F3/2 E/2| F3 d/2B/2| AF FE/2-D/2|\
 GE E3/2 F/2| AF F3/2 E/2| F3 E/2E/2| A3/2 B/2 cd| e3/2 f/2 e E/2E/2|\
 AB cd| e3f/2-e/2| dB cB/2-A/2| B3/2 c/2 d e/2e/2| fFF/2-A/2F/2-E/2|\
 F3||
